src/assets/icons/personal.svg

<svg xmlns="http://www.w3.org/2000/svg" xmlns:xlink="http://www.w3.org/1999/xlink"  version="1.1" width="19.5" height="23.5" viewBox="0 0 19.5 23.5"><g><g><path d="M9.75,19.5Q9.98935,19.5,10.2284,19.4883Q10.4675,19.4765,10.7057,19.453Q10.9439,19.4296,11.1806,19.3945Q11.4174,19.3593,11.6521,19.3127Q11.8869,19.266,12.1191,19.2078Q12.3512,19.1496,12.5803,19.0802Q12.8093,19.0107,13.0347,18.9301Q13.26,18.8494,13.4812,18.7578Q13.7023,18.6662,13.9187,18.5639Q14.135,18.4616,14.3461,18.3487Q14.5572,18.2359,14.7625,18.1129Q14.9678,17.9898,15.1668,17.8568Q15.3658,17.7239,15.5581,17.5813Q15.7503,17.4387,15.9353,17.2869Q16.1204,17.135,16.2977,16.9743Q16.475,16.8135,16.6443,16.6443Q16.8135,16.475,16.9743,16.2977Q17.135,16.1204,17.2869,15.9353Q17.4387,15.7503,17.5813,15.5581Q17.7239,15.3658,17.8568,15.1668Q17.9898,14.9678,18.1129,14.7625Q18.2359,14.5572,18.3487,14.3461Q18.4616,14.135,18.5639,13.9187Q18.6662,13.7023,18.7578,13.4812Q18.8494,13.26,18.9301,13.0347Q19.0107,12.8093,19.0802,12.5803Q19.1496,12.3512,19.2078,12.1191Q19.266,11.8869,19.3127,11.6521Q19.3593,11.4174,19.3945,11.1806Q19.4296,10.9439,19.453,10.7057Q19.4765,10.4675,19.4883,10.2284Q19.5,9.98935,19.5,9.75Q19.5,9.51065,19.4883,9.27159Q19.4765,9.03253,19.453,8.79433Q19.4296,8.55614,19.3945,8.31938Q19.3593,8.08262,19.3127,7.84787Q19.266,7.61312,19.2078,7.38094Q19.1496,7.14877,19.0802,6.91972Q19.0107,6.69068,18.9301,6.46532Q18.8494,6.23996,18.7578,6.01884Q18.6662,5.79771,18.5639,5.58134Q18.4616,5.36497,18.3487,5.15388Q18.2359,4.94279,18.1129,4.7375Q17.9898,4.5322,17.8568,4.33319Q17.7239,4.13418,17.5813,3.94193Q17.4387,3.74968,17.2869,3.56467Q17.135,3.37965,16.9743,3.2023Q16.8135,3.02495,16.6443,2.85571Q16.475,2.68646,16.2977,2.52573Q16.1204,2.36499,15.9353,2.21315Q15.7503,2.06131,15.5581,1.91873Q15.3658,1.77615,15.1668,1.64317Q14.9678,1.5102,14.7625,1.38715Q14.5572,1.2641,14.3461,1.15127Q14.135,1.03844,13.9187,0.936104Q13.7023,0.833769,13.4812,0.742174Q13.26,0.65058,13.0347,0.569945Q12.8093,0.489311,12.5803,0.419832Q12.3512,0.350352,12.1191,0.292195Q11.8869,0.234038,11.6521,0.187343Q11.4174,0.140649,11.1806,0.105529Q10.9439,0.0704092,10.7057,0.0469489Q10.4675,0.0234886,10.2284,0.0117443Q9.98935,0,9.75,0Q9.51065,0,9.27159,0.0117443Q9.03253,0.0234886,8.79433,0.0469489Q8.55614,0.0704092,8.31938,0.105529Q8.08262,0.140649,7.84787,0.187343Q7.61312,0.234038,7.38094,0.292195Q7.14877,0.350352,6.91972,0.419832Q6.69068,0.489311,6.46532,0.569945Q6.23996,0.65058,6.01884,0.742174Q5.79771,0.833769,5.58134,0.936104Q5.36497,1.03844,5.15388,1.15127Q4.94279,1.2641,4.7375,1.38715Q4.5322,1.5102,4.33319,1.64317Q4.13418,1.77615,3.94193,1.91873Q3.74968,2.06131,3.56467,2.21315Q3.37965,2.36499,3.2023,2.52573Q3.02495,2.68646,2.85571,2.85571Q2.68646,3.02495,2.52573,3.2023Q2.36499,3.37965,2.21315,3.56467Q2.06131,3.74968,1.91873,3.94193Q1.77615,4.13418,1.64317,4.33319Q1.5102,4.5322,1.38715,4.7375Q1.2641,4.94279,1.15127,5.15388Q1.03844,5.36497,0.936104,5.58134Q0.833769,5.79771,0.742174,6.01884Q0.65058,6.23996,0.569945,6.46532Q0.489311,6.69068,0.419832,6.91972Q0.350352,7.14877,0.292195,7.38094Q0.234038,7.61312,0.187343,7.84787Q0.140649,8.08262,0.105529,8.31938Q0.0704092,8.55614,0.0469489,8.79433Q0.0234886,9.03253,0.0117443,9.27159Q0,9.51065,0,9.75Q0,9.98935,0.0117443,10.2284Q0.0234886,10.4675,0.0469489,10.7057Q0.0704092,10.9439,0.105529,11.1806Q0.140649,11.4174,0.187343,11.6521Q0.234038,11.8869,0.292195,12.1191Q0.350352,12.3512,0.419832,12.5803Q0.489311,12.8093,0.569945,13.0347Q0.65058,13.26,0.742174,13.4812Q0.833769,13.7023,0.936104,13.9187Q1.03844,14.135,1.15127,14.3461Q1.2641,14.5572,1.38715,14.7625Q1.5102,14.9678,1.64317,15.1668Q1.77615,15.3658,1.91873,15.5581Q2.06131,15.7503,2.21315,15.9353Q2.36499,16.1204,2.52573,16.2977Q2.68646,16.475,2.85571,16.6443Q3.02495,16.8135,3.2023,16.9743Q3.37965,17.135,3.56467,17.2869Q3.74968,17.4387,3.94193,17.5813Q4.13418,17.7239,4.33319,17.8568Q4.5322,17.9898,4.7375,18.1129Q4.94279,18.2359,5.15388,18.3487Q5.36497,18.4616,5.58134,18.5639Q5.79771,18.6662,6.01884,18.7578Q6.23996,18.8494,6.46532,18.9301Q6.69068,19.0107,6.91972,19.0802Q7.14877,19.1496,7.38094,19.2078Q7.61312,19.266,7.84787,19.3127Q8.08262,19.3593,8.31938,19.3945Q8.55614,19.4296,8.79433,19.453Q9.03253,19.4765,9.27159,19.4883Q9.51065,19.5,9.75,19.5ZM9.75,17.5Q9.94025,17.5,10.1303,17.4907Q10.3203,17.4813,10.5096,17.4627Q10.699,17.444,10.8872,17.4161Q11.0754,17.3882,11.2619,17.3511Q11.4485,17.314,11.6331,17.2677Q11.8176,17.2215,11.9997,17.1663Q12.1818,17.1111,12.3609,17.047Q12.54,16.9829,12.7158,16.9101Q12.8916,16.8373,13.0636,16.7559Q13.2355,16.6746,13.4033,16.5849Q13.5711,16.4952,13.7343,16.3974Q13.8975,16.2996,14.0557,16.1939Q14.2139,16.0882,14.3667,15.9749Q14.5195,15.8615,14.6665,15.7408Q14.8136,15.6201,14.9546,15.4924Q15.0955,15.3646,15.2301,15.2301Q15.3646,15.0955,15.4924,14.9546Q15.6201,14.8136,15.7408,14.6665Q15.8615,14.5195,15.9749,14.3667Q16.0882,14.2139,16.1939,14.0557Q16.2996,13.8975,16.3974,13.7343Q16.4952,13.5711,16.5849,13.4033Q16.6746,13.2355,16.7559,13.0636Q16.8373,12.8916,16.9101,12.7158Q16.9829,12.54,17.047,12.3609Q17.1111,12.1818,17.1663,11.9997Q17.2215,11.8176,17.2677,11.6331Q17.314,11.4485,17.3511,11.2619Q17.3882,11.0754,17.4161,10.8872Q17.444,10.699,17.4627,10.5096Q17.4813,10.3203,17.4907,10.1303Q17.5,9.94025,17.5,9.75Q17.5,9.55975,17.4907,9.36973Q17.4813,9.1797,17.4627,8.99037Q17.444,8.80103,17.4161,8.61284Q17.3882,8.42464,17.3511,8.23805Q17.314,8.05145,17.2677,7.8669Q17.2215,7.68235,17.1663,7.50029Q17.1111,7.31823,17.047,7.1391Q16.9829,6.95997,16.9101,6.7842Q16.8373,6.60843,16.7559,6.43645Q16.6746,6.26446,16.5849,6.09667Q16.4952,5.92889,16.3974,5.7657Q16.2996,5.60252,16.1939,5.44433Q16.0882,5.28614,15.9749,5.13333Q15.8615,4.98052,15.7408,4.83345Q15.6201,4.68639,15.4924,4.54542Q15.3646,4.40445,15.2301,4.26992Q15.0955,4.13539,14.9546,4.00763Q14.8136,3.87986,14.6665,3.75917Q14.5195,3.63847,14.3667,3.52514Q14.2139,3.41181,14.0557,3.30611Q13.8975,3.20041,13.7343,3.1026Q13.5711,3.00479,13.4033,2.91511Q13.2355,2.82543,13.0636,2.74408Q12.8916,2.66274,12.7158,2.58993Q12.54,2.51713,12.3609,2.45303Q12.1818,2.38894,11.9997,2.33371Q11.8176,2.27849,11.6331,2.23226Q11.4485,2.18603,11.2619,2.14891Q11.0754,2.1118,10.8872,2.08388Q10.699,2.05597,10.5096,2.03732Q10.3203,2.01867,10.1303,2.00934Q9.94025,2,9.75,2Q9.55975,2,9.36973,2.00934Q9.1797,2.01867,8.99037,2.03732Q8.80103,2.05597,8.61284,2.08388Q8.42464,2.1118,8.23805,2.14891Q8.05145,2.18603,7.8669,2.23226Q7.68235,2.27849,7.50029,2.33371Q7.31823,2.38894,7.1391,2.45303Q6.95997,2.51713,6.7842,2.58993Q6.60843,2.66274,6.43645,2.74408Q6.26446,2.82543,6.09667,2.91511Q5.92889,3.00479,5.7657,3.1026Q5.60252,3.20041,5.44433,3.30611Q5.28614,3.41181,5.13333,3.52514Q4.98052,3.63847,4.83345,3.75917Q4.68639,3.87986,4.54542,4.00763Q4.40445,4.13539,4.26992,4.26992Q4.13539,4.40445,4.00763,4.54542Q3.87986,4.68639,3.75917,4.83345Q3.63847,4.98052,3.52514,5.13333Q3.41181,5.28614,3.30611,5.44433Q3.20041,5.60252,3.1026,5.7657Q3.00479,5.92889,2.91511,6.09667Q2.82543,6.26446,2.74408,6.43645Q2.66274,6.60843,2.58993,6.7842Q2.51713,6.95997,2.45303,7.1391Q2.38894,7.31823,2.33371,7.50029Q2.27849,7.68235,2.23226,7.8669Q2.18603,8.05145,2.14891,8.23805Q2.1118,8.42464,2.08388,8.61284Q2.05597,8.80103,2.03732,8.99037Q2.01867,9.1797,2.00934,9.36973Q2,9.55975,2,9.75Q2,9.94025,2.00934,10.1303Q2.01867,10.3203,2.03732,10.5096Q2.05597,10.699,2.08388,10.8872Q2.1118,11.0754,2.14891,11.2619Q2.18603,11.4485,2.23226,11.6331Q2.27849,11.8176,2.33371,11.9997Q2.38894,12.1818,2.45303,12.3609Q2.51713,12.54,2.58993,12.7158Q2.66274,12.8916,2.74408,13.0636Q2.82543,13.2355,2.91511,13.4033Q3.00479,13.5711,3.1026,13.7343Q3.20041,13.8975,3.30611,14.0557Q3.41181,14.2139,3.52514,14.3667Q3.63847,14.5195,3.75917,14.6665Q3.87986,14.8136,4.00763,14.9546Q4.13539,15.0955,4.26992,15.2301Q4.40445,15.3646,4.54542,15.4924Q4.68639,15.6201,4.83345,15.7408Q4.98052,15.8615,5.13333,15.9749Q5.28614,16.0882,5.44433,16.1939Q5.60252,16.2996,5.7657,16.3974Q5.92889,16.4952,6.09667,16.5849Q6.26446,16.6746,6.43645,16.7559Q6.60843,16.8373,6.7842,16.9101Q6.95997,16.9829,7.1391,17.047Q7.31823,17.1111,7.50029,17.1663Q7.68235,17.2215,7.8669,17.2677Q8.05145,17.314,8.23805,17.3511Q8.42464,17.3882,8.61284,17.4161Q8.80103,17.444,8.99037,17.4627Q9.1797,17.4813,9.36973,17.4907Q9.55975,17.5,9.75,17.5ZM13.6074,13.3206C14.0605,13.0048,14.1719,12.3815,13.8562,11.9284C13.5405,11.4753,12.9172,11.3639,12.464,11.6796C11.5359,12.3263,10.6772,12.6351,9.87902,12.6351C9.08083,12.6351,8.22215,12.3263,7.294,11.6796C6.84086,11.3639,6.21757,11.4753,5.90184,11.9284C5.58611,12.3815,5.6975,13.0048,6.15063,13.3206C7.39434,14.1871,8.64013,14.6351,9.87902,14.6351C11.1179,14.6351,12.3637,14.1871,13.6074,13.3206ZM17.5,21.5C18.0523,21.5,18.5,21.9477,18.5,22.5C18.5,23.0523,18.0523,23.5,17.5,23.5L2.5,23.5C1.94772,23.5,1.5,23.0523,1.5,22.5C1.5,21.9477,1.94772,21.5,2.5,21.5L17.5,21.5Z" fill-rule="evenodd"  fill-opacity="1"/></g></g></svg>

<svg xmlns="http://www.w3.org/2000/svg" width="19.5" height="23.5"><path fill-rule="evenodd" d="M9.75 19.5q.24 0 .478-.012.24-.011.478-.035.238-.023.475-.058.236-.036.471-.082t.467-.105q.232-.058.461-.128.23-.07.455-.15t.446-.172.438-.194q.216-.102.427-.215t.416-.236.405-.256.391-.276.377-.294.363-.313q.177-.16.346-.33.17-.169.33-.346.161-.178.313-.363t.294-.377.276-.391q.133-.2.256-.405t.236-.416.215-.427q.102-.217.194-.438.091-.221.172-.446.08-.226.15-.455t.128-.46.105-.468q.046-.235.082-.471.035-.237.058-.475.024-.239.035-.478t.012-.478-.012-.478q-.011-.24-.035-.478-.023-.238-.058-.475-.036-.236-.082-.471t-.105-.467q-.058-.232-.128-.461-.07-.23-.15-.455t-.172-.446-.194-.438-.215-.427-.236-.417-.256-.404-.276-.391-.294-.377-.313-.363-.33-.346-.346-.33q-.178-.161-.363-.313t-.377-.294-.391-.276q-.2-.133-.405-.256t-.416-.236-.427-.215q-.217-.102-.438-.194-.221-.091-.446-.172-.226-.08-.455-.15t-.46-.128-.468-.105q-.235-.046-.471-.081-.237-.036-.475-.06-.239-.023-.478-.034T9.75 0t-.478.012q-.24.011-.478.035-.238.023-.475.059-.236.035-.471.081-.235.047-.467.105T6.92.42t-.455.15-.446.172-.438.194-.427.215-.417.236-.404.256-.391.276-.377.294-.363.313-.346.33-.33.346-.313.363-.294.377-.276.391-.256.404q-.123.206-.236.417t-.215.427-.194.438-.172.446-.15.455-.128.46-.105.468-.081.471-.06.475q-.023.239-.034.478T0 9.75t.012.478q.011.24.035.478.023.238.059.475.035.236.081.471.047.235.105.467t.128.461.15.455.172.446.194.438.215.427.236.416.256.405.276.391.294.377.313.363.33.346.346.33.363.313.377.294.391.276.404.256q.206.123.417.236t.427.215.438.194.446.172.455.15.46.128.468.105.471.082.475.058q.239.024.478.035t.478.012m0-2q.19 0 .38-.01.19-.009.38-.027.189-.019.377-.047t.375-.065.371-.083q.185-.047.367-.102t.36-.119.356-.137.348-.154q.172-.081.34-.171.167-.09.33-.188.164-.097.322-.203t.31-.22.3-.233q.148-.12.289-.249.14-.127.275-.262t.262-.275.249-.289q.12-.146.234-.3.113-.152.219-.31t.203-.322.188-.33.17-.34.155-.348.137-.355q.064-.18.12-.361.054-.182.1-.367.047-.184.084-.371t.065-.375.047-.377.028-.38.009-.38-.01-.38-.027-.38-.047-.377-.065-.375-.083-.371-.102-.367-.119-.36-.137-.356-.154-.348-.171-.34-.188-.33q-.097-.163-.203-.322-.106-.158-.22-.31-.113-.153-.233-.3-.12-.148-.249-.289-.127-.14-.262-.275t-.275-.262q-.141-.128-.289-.249-.146-.12-.3-.234-.152-.113-.31-.219t-.322-.203-.33-.188-.34-.17-.348-.155-.355-.137q-.18-.064-.361-.12-.182-.055-.367-.1-.184-.047-.371-.084t-.375-.065-.377-.047-.38-.028T9.75 2t-.38.01-.38.027-.377.047-.375.065-.371.083-.367.102-.36.119-.356.137-.348.154-.34.171-.33.188q-.163.097-.322.203-.158.106-.31.22-.153.112-.3.233-.148.12-.289.249-.14.127-.275.262-.135.134-.262.275-.128.141-.249.288-.12.148-.234.3-.113.153-.219.311-.106.159-.203.322t-.188.33-.17.34-.155.348-.137.355q-.064.18-.12.361-.055.182-.1.367-.047.184-.084.371t-.065.375-.047.377-.028.38T2 9.75t.01.38.027.38.047.377.065.375.083.371.102.367.119.36.137.356.154.348.171.34.188.33q.097.164.203.322t.22.31.233.3q.12.148.249.289.127.14.262.275.134.135.275.262.141.128.288.249.148.12.3.234.153.113.311.219.159.106.322.203t.33.188.34.17q.172.082.348.155t.355.137.361.12.367.1.371.084.375.065.377.047.38.028.38.009m3.857-4.18a1 1 0 0 0-1.143-1.64c-.928.646-1.787.955-2.585.955s-1.657-.309-2.585-.955a1 1 0 0 0-1.143 1.64c1.243.867 2.49 1.315 3.728 1.315 1.239 0 2.485-.448 3.728-1.314M17.5 21.5a1 1 0 1 1 0 2h-15a1 1 0 1 1 0-2z"/></svg>
